hero/outline/eye-slash.svg

<svg width="24" height="24" viewBox="0 0 24 24" fill="none" xmlns="http://www.w3.org/2000/svg">
<path d="M3.97993 8.22257C3.05683 9.31382 2.35242 10.596 1.93436 12.0015C3.22565 16.338 7.24311 19.5 11.9991 19.5C12.9917 19.5 13.9521 19.3623 14.8623 19.1049M6.22763 6.22763C7.88389 5.13558 9.86771 4.5 12 4.5C16.756 4.5 20.7734 7.66205 22.0647 11.9985C21.3528 14.3919 19.8106 16.4277 17.772 17.772M6.22763 6.22763L3 3M6.22763 6.22763L9.87868 9.87868M17.772 17.772L21 21M17.772 17.772L14.1213 14.1213M14.1213 14.1213C14.6642 13.5784 15 12.8284 15 12C15 10.3431 13.6569 9 12 9C11.1716 9 10.4216 9.33579 9.87868 9.87868M14.1213 14.1213L9.87868 9.87868" stroke="#0F172A" stroke-width="1.5" stroke-linecap="round" stroke-linejoin="round"/>
</svg>

<svg viewBox="0 0 24 24" xmlns="http://www.w3.org/2000/svg"><path fill="none" stroke="#000" stroke-linecap="round" stroke-linejoin="round" stroke-width="1.5" d="M3.98 8.22h-.001c-.94 1.1-1.64 2.39-2.05 3.77 1.29 4.33 5.31 7.5 10.06 7.5 .99 0 1.95-.14 2.86-.4M6.214 6.21l0 0c1.71-1.14 3.72-1.74 5.77-1.73 4.756 0 8.773 3.162 10.06 7.49v0c-.71 2.36-2.23 4.41-4.3 5.77M6.19 6.19L2.96 2.96m3.22 3.22l3.65 3.65m7.89 7.89l3.22 3.22m-3.23-3.23l-3.65-3.65m0 0l0 0c1.17-1.18 1.17-3.08 0-4.25 -1.18-1.18-3.08-1.18-4.25 0m4.24 4.24L9.8 9.803"/></svg>
